contributed-vectors/liner.svg

<svg xmlns="http://www.w3.org/2000/svg" xml:space="preserve" style="fill-rule:evenodd;clip-rule:evenodd;stroke-linejoin:round;stroke-miterlimit:2" viewBox="0 0 192 192"><path d="M164.5 21.5c0-5.519-4.481-10-10-10h-133c-5.519 0-10 4.481-10 10v133c0 5.519 4.481 10 10 10h133c5.519 0 10-4.481 10-10v-133Z" style="fill:#fff" transform="translate(8 8)"/><path d="M114.764 19.5H162.5c5.519 0 10 4.481 10 10v14.185l-43.899 62.695-50.105-35.084L114.764 19.5Z" style="fill:url(#a)"/><path d="M112.989 117.922H82.406L67.114 93.917h61.167l-15.292 24.005Z" style="fill:url(#b)" transform="rotate(35 99.56 97.78)"/><path d="M82.437 110.318h30.833v14.792H82.437z" style="fill:url(#c)" transform="rotate(35 98.317 97.117)"/><path d="m110.562 140.167-25.417 17.797v-26.396h25.417v8.599Z" style="fill:url(#d)" transform="rotate(35 99.638 97.533)"/><defs><linearGradient id="a" x1="0" x2="1" y1="0" y2="0" gradientTransform="scale(162.2153) rotate(-55 1.06 .074)" gradientUnits="userSpaceOnUse"><stop offset="0" style="stop-color:#9abeff;stop-opacity:1"/><stop offset="1" style="stop-color:#96dfd3;stop-opacity:1"/></linearGradient><linearGradient id="b" x1="0" x2="1" y1="0" y2="0" gradientTransform="rotate(-90 127.83 30.133) scale(162.215)" gradientUnits="userSpaceOnUse"><stop offset="0" style="stop-color:#9abeff;stop-opacity:1"/><stop offset="1" style="stop-color:#96dfd3;stop-opacity:1"/></linearGradient><linearGradient id="c" x1="0" x2="1" y1="0" y2="0" gradientTransform="rotate(-90 127.492 29.639) scale(162.215)" gradientUnits="userSpaceOnUse"><stop offset="0" style="stop-color:#9abeff;stop-opacity:1"/><stop offset="1" style="stop-color:#96dfd3;stop-opacity:1"/></linearGradient><linearGradient id="d" x1="0" x2="1" y1="0" y2="0" gradientTransform="rotate(-90 127.909 30.055) scale(162.215)" gradientUnits="userSpaceOnUse"><stop offset="0" style="stop-color:#9abeff;stop-opacity:1"/><stop offset="1" style="stop-color:#96dfd3;stop-opacity:1"/></linearGradient></defs></svg>

<?xml version="1.0" encoding="UTF-8" standalone="no"?>
<!DOCTYPE svg PUBLIC "-//W3C//DTD SVG 1.1//EN" "http://www.w3.org/Graphics/SVG/1.1/DTD/svg11.dtd">
<svg width="100%" height="100%" viewBox="0 0 192 192" version="1.1" xmlns="http://www.w3.org/2000/svg" xmlns:xlink="http://www.w3.org/1999/xlink" xml:space="preserve" xmlns:serif="http://www.serif.com/" style="fill-rule:evenodd;clip-rule:evenodd;stroke-linejoin:round;stroke-miterlimit:2;">
    <g id="Layer1">
        <g transform="matrix(1,0,0,1,8,8)">
            <path d="M164.5,21.5C164.5,15.981 160.019,11.5 154.5,11.5L21.5,11.5C15.981,11.5 11.5,15.981 11.5,21.5L11.5,154.5C11.5,160.019 15.981,164.5 21.5,164.5L154.5,164.5C160.019,164.5 164.5,160.019 164.5,154.5L164.5,21.5Z" style="fill:white;"/>
        </g>
        <g transform="matrix(0.819152,0.573576,-0.573576,0.819152,75.4805,-38.4484)">
            <g transform="matrix(0.819152,-0.573576,0.573576,0.819152,-39.777,74.7889)">
                <path d="M114.764,19.5L162.5,19.5C168.019,19.5 172.5,23.981 172.5,29.5L172.5,43.685L128.601,106.38L78.496,71.296L114.764,19.5Z" style="fill:url(#_Linear1);"/>
            </g>
            <g transform="matrix(1,0,0,1,-1.69779,0)">
                <path d="M112.989,117.922L82.406,117.922L67.114,93.917L128.281,93.917L112.989,117.922Z" style="fill:url(#_Linear2);"/>
            </g>
            <g transform="matrix(1,0,0,1,-1.85352,0.833333)">
                <rect x="82.437" y="110.318" width="30.833" height="14.792" style="fill:url(#_Linear3);"/>
            </g>
            <g transform="matrix(1,0,0,1,-1.85352,0)">
                <path d="M110.562,140.167L85.145,157.964L85.145,131.568L110.562,131.568L110.562,140.167Z" style="fill:url(#_Linear4);"/>
            </g>
        </g>
    </g>
    <defs>
        <linearGradient id="_Linear1" x1="0" y1="0" x2="1" y2="0" gradientUnits="userSpaceOnUse" gradientTransform="matrix(93.0428,-132.879,132.879,93.0428,63.5148,146.011)"><stop offset="0" style="stop-color:rgb(154,190,255);stop-opacity:1"/><stop offset="1" style="stop-color:rgb(150,223,211);stop-opacity:1"/></linearGradient>
        <linearGradient id="_Linear2" x1="0" y1="0" x2="1" y2="0" gradientUnits="userSpaceOnUse" gradientTransform="matrix(9.28064e-16,-162.215,162.215,9.28064e-16,97.6978,157.964)"><stop offset="0" style="stop-color:rgb(154,190,255);stop-opacity:1"/><stop offset="1" style="stop-color:rgb(150,223,211);stop-opacity:1"/></linearGradient>
        <linearGradient id="_Linear3" x1="0" y1="0" x2="1" y2="0" gradientUnits="userSpaceOnUse" gradientTransform="matrix(9.28064e-16,-162.215,162.215,9.28064e-16,97.8535,157.131)"><stop offset="0" style="stop-color:rgb(154,190,255);stop-opacity:1"/><stop offset="1" style="stop-color:rgb(150,223,211);stop-opacity:1"/></linearGradient>
        <linearGradient id="_Linear4" x1="0" y1="0" x2="1" y2="0" gradientUnits="userSpaceOnUse" gradientTransform="matrix(9.28064e-16,-162.215,162.215,9.28064e-16,97.8535,157.964)"><stop offset="0" style="stop-color:rgb(154,190,255);stop-opacity:1"/><stop offset="1" style="stop-color:rgb(150,223,211);stop-opacity:1"/></linearGradient>
    </defs>
</svg>
